assets/icons/product-toggle.svg

<svg width="20" height="20" viewBox="0 0 20 20" fill="none" xmlns="http://www.w3.org/2000/svg">
<path d="M16.7757 11.4557H3.22429C2.82412 11.4557 2.5 11.7798 2.5 12.1799C2.5 12.332 2.54708 12.4733 2.62675 12.5892C2.66115 12.6706 2.71366 12.7467 2.77885 12.8137L5.97115 16.0042C6.11239 16.1454 6.29708 16.216 6.48358 16.216C6.67009 16.216 6.85478 16.1454 6.99602 16.0042C7.27849 15.7217 7.27849 15.2636 6.99602 14.9793L4.91731 12.9042H16.7739C17.1741 12.9042 17.4982 12.5801 17.4982 12.1799C17.4982 11.7798 17.1759 11.4557 16.7757 11.4557ZM3.22429 8.09496H16.7757C17.1759 8.09496 17.5 7.77084 17.5 7.37067C17.5 7.21857 17.4529 7.07734 17.3733 6.96145C17.3479 6.9017 17.3117 6.84375 17.2682 6.78943L14.6572 3.59894C14.4037 3.28931 13.9474 3.24404 13.6377 3.49754C13.3281 3.75104 13.2828 4.20734 13.5363 4.51698L15.2801 6.64638H3.22429C2.82412 6.64638 2.5 6.9705 2.5 7.37067C2.5 7.77084 2.82412 8.09496 3.22429 8.09496Z" fill="white"/>
</svg>

<svg xmlns="http://www.w3.org/2000/svg" width="20" height="20" fill="none" data-c="1"><path fill="#fff" d="M16.776 11.456H3.224a.724.724 0 0 0-.597 1.133.7.7 0 0 0 .152.225l3.192 3.19a.72.72 0 0 0 .513.212.726.726 0 0 0 .512-1.237l-2.079-2.075h11.857a.724.724 0 0 0 .002-1.448M3.224 8.095h13.552a.724.724 0 0 0 .597-1.134.7.7 0 0 0-.105-.172l-2.61-3.19a.724.724 0 1 0-1.122.918l1.744 2.13H3.224a.724.724 0 1 0 0 1.448"/></svg>
